public/logos/tempoxyz.svg

<svg width="204" height="61" viewBox="0 0 204 61" fill="none" xmlns="http://www.w3.org/2000/svg">
<path d="M23.6424 50.3635H12.8025L22.8492 19.6003H10L12.8025 10.5834H48.6006L45.7981 19.6003H33.6363L23.6424 50.3635Z" fill="white"/>
<path d="M63.9809 50.3635H38.2824L51.1846 10.5834H76.7773L74.3449 18.1682H59.4863L56.7896 26.7076H71.1723L68.7399 34.1863H54.3043L51.6076 42.7788H66.3604L63.9809 50.3635Z" fill="white"/>
<path d="M75.6123 50.3635H66.9933L79.9483 10.5834H94.331L93.8551 32.0647L107.868 10.5834H123.625L110.723 50.3635H99.936L108.502 23.6313H108.344L90.7353 50.3635H84.3371L84.6015 23.3131H84.4957L75.6123 50.3635Z" fill="white"/>
<path d="M135.758 17.956L131.581 30.7917H132.744C135.388 30.7917 137.592 30.1729 139.354 28.9353C141.117 27.6624 142.262 25.859 142.791 23.5252C143.249 21.5097 143.003 20.0776 142.051 19.229C141.099 18.3803 139.513 17.956 137.292 17.956H135.758ZM125.289 50.3635H114.449L127.351 10.5834H140.517C143.549 10.5834 146.158 11.0785 148.343 12.0686C150.564 13.0233 152.186 14.4023 153.208 16.2057C154.266 17.9737 154.618 20.0423 154.266 22.4114C153.807 25.5231 152.609 28.2635 150.67 30.6326C148.731 33.0017 146.211 34.8404 143.108 36.1488C140.042 37.4217 136.604 38.0582 132.797 38.0582H129.255L125.289 50.3635Z" fill="white"/>
<path d="M180.103 47.8176C176.507 49.9392 172.682 51 168.628 51H168.523C164.927 51 161.895 50.2044 159.428 48.6132C156.995 46.9866 155.25 44.7943 154.193 42.0362C153.171 39.2781 152.924 36.2549 153.453 32.9664C154.122 28.8292 155.656 25.0103 158.053 21.5097C160.45 18.0091 163.446 15.2156 167.042 13.1294C170.638 11.0431 174.48 10 178.569 10H178.675C182.412 10 185.496 10.7956 187.929 12.3868C190.396 13.978 192.106 16.1527 193.058 18.9107C194.045 21.6335 194.256 24.6921 193.692 28.0867C193.023 32.0824 191.489 35.8482 189.092 39.3842C186.695 42.8849 183.698 45.696 180.103 47.8176ZM165.138 40.9754C166.09 42.7788 167.747 43.6805 170.109 43.6805H170.215C172.154 43.6805 173.951 42.9556 175.608 41.5058C177.3 40.0207 178.728 38.0405 179.891 35.5653C181.09 33.0901 181.971 30.332 182.535 27.2911C183.064 24.3208 182.852 21.934 181.901 20.1307C180.949 18.2919 179.31 17.3726 176.983 17.3726H176.877C175.079 17.3726 173.335 18.1151 171.642 19.6003C169.986 21.0854 168.54 23.0832 167.306 25.5938C166.073 28.1044 165.174 30.8271 164.61 33.762C164.046 36.7322 164.222 39.1367 165.138 40.9754Z" fill="white"/>
</svg>

<svg xmlns="http://www.w3.org/2000/svg" xmlns:xlink="http://www.w3.org/1999/xlink" viewBox="10.0078125 10.0078125 183.953125 40.984375" width="98.74418604651163" height="22"><path fill="#000" d="M23.642 50.364h-10.84L22.85 19.6H10l2.803-9.017H48.6L45.798 19.6H33.636zm40.338 0H38.283l12.903-39.78h25.592l-2.432 7.584h-14.86l-2.696 8.54h14.382l-2.432 7.478H54.304l-2.696 8.593H66.36zm11.632 0h-8.619l12.955-39.78h14.383l-.476 21.48 14.013-21.48h15.757l-12.902 39.78H99.936l8.566-26.733h-.158L90.735 50.364h-6.398l.264-27.05h-.105zm60.146-32.408-4.177 12.836h1.163q3.966 0 6.61-1.857 2.644-1.91 3.437-5.41.688-3.022-.74-4.296-1.428-1.273-4.759-1.273zm-10.469 32.408h-10.84l12.902-39.78h13.166q4.548 0 7.826 1.485 3.332 1.431 4.865 4.137 1.587 2.652 1.058 6.205-.688 4.667-3.596 8.222-2.908 3.553-7.562 5.516-4.6 1.91-10.311 1.91h-3.542zm54.814-2.546Q174.709 51 168.628 51h-.105q-5.394 0-9.095-2.387-3.65-2.44-5.235-6.577-1.533-4.137-.74-9.07 1.004-6.206 4.6-11.456t8.989-8.38Q172.436 10 178.569 10h.106q5.605 0 9.254 2.387 3.7 2.387 5.129 6.524 1.48 4.084.634 9.176-1.004 5.993-4.6 11.297-3.596 5.25-8.989 8.434m-14.965-6.843q1.428 2.706 4.971 2.706h.106q2.908 0 5.393-2.175 2.538-2.227 4.283-5.94 1.798-3.714 2.644-8.275.793-4.455-.634-7.16-1.428-2.759-4.918-2.758h-.106q-2.696 0-5.235 2.227-2.484 2.227-4.336 5.994-1.85 3.765-2.696 8.168-.846 4.456.528 7.213"/></svg>
